!!!!SEGMENT: pl-wtm--iii-41-608_karasinski-adam-jozef--walc-francois.krn
!!!cenid: 19xx:51
!!!COM: Karasiński, Adam Józef
!!!COM-rismID: pe50045321
!!!CDT: 1868-1920
!!!CNT: Polish
!!!OTL: Walc François
!!!PDT: 1901
!!!AGN: Secular
!!!YEC: Copyright 2022 Narodowy Instytut Fryderyka Chopina (https://polishscores.org)
!!!YEM: License CC-BY-4.0 (https://creativecommons.org/licenses/by/4.0)
!!!SMS-siglum: PL-Wtm
!!!SMS-shelfmark: III.41.608
!!!SMS-shelfwork: W
!!!NIFC-rismSourceID: 1001141064
!!!NIFC-rismChildID: 1001141064
!!!NIFC-islandoraID: pl-wtm:20074
!!!URL-pdf-islandora: https://repozytorium.nifc.pl/islandora/object/pl-wtm%3A20074/datastream/PDF/view
!!!URL-scan: https://polish.musicsources.pl/pl/lokalizacje/galeria/druki-muzyczne/17496/2 @EN{Scan on Polish Music Sources Website} @PL{Skany w portalu Dziedzictwo Muzyki Polskiej w otwartym dostępie}
!!!AIN: 1 piano
!!!key: e
**kern	**kern	**dynam
*part1	*part1	*
*staff2	*staff1	*staff1/2
*I"PIANO.	*I"PIANO.	*
*I'[pf]	*I'[pf]	*
*ICklav	*ICklav	*
*Ipiano	*Ipiano	*
*clefF4	*clefG2	*
*>[A,A1,A,A2,B,B1,B,B2,B]	*>[A,A1,A,A2,B,B1,B,B2,B]	*>[A,A1,A,A2,B,B1,B,B2,B]
*>A	*>A	*>A
*k[f#]	*k[f#]	*
*e:	*e:	*
*M3/4	*M3/4	*
=1	=1	=1
8g>\L	8gg/L	.
8f#>\	8ff#/	.
8e>\	8ee/	.
8f#>\	8ff#/	.
8g>\	8gg/	.
8c#X>\J	8cc#X/J	.
=2	=2	=2
8d>\L	8dd/L	.
8e>\	8ee/	.
8f#>\	8ff#/	.
8B>\	8b/	.
8c#X>\	8cc#X/	.
8d>\J	8dd/J	.
=3	=3	=3
8c#X>\L	8cc#X/L	.
8G#X>\	8g#X/	.
8A#X>\	8a#X/	.
8B>\	8b/	.
8A#>\	8a#/	.
8G#>\J	8g#/J	.
=4	=4	=4
*	*^	*
4r	2.cc#X^/	4ryy	.
4C#X\ 4A#X	.	4c#X\ 4f#	.
4C#\ 4A#	.	4c#\ 4f#	.
*	*v	*v	*
=5	=5	=5
8G\L	8g/L	.
8F#\	8f#/	.
8E\	8e/	.
8F#\	8f#/	.
8G\	8g/	.
8C#X\J	8c#X/J	.
!!LO:LB:g=original	!	!
=6	=6	=6
8D\L	8d/L	.
8E\	8e/	.
8F#\	8f#/	.
8BB\	8B/	.
8C#X\	8c#X/	.
8D\J	8d/J	.
=7	=7	=7
8C#X\L	8c#X/L	.
8BB\	8B/	.
8D#X\	8d#X/	.
8BB\	8B/	.
8E\	8e/	.
8G\J	8g/J	.
=8	=8	=8
*	*^	*
!	!LO:TX:b:i:t=lento	!	!
4r	2.b^/	4r	.
(4B\	.	(>4e\ 4g	.
4A\)	.	4d#X\) 4f#	.
=9	=9	=9	=9
*	*^	*^	*
4r	2.b^/	4r	2ryy	4ryy	.
(<4C/	.	2c\	.	(4e/	.
4AA/)	.	.	4r	4f#/)	.
*	*v	*v	*v	*v	*
=10	=10	=10
4BB/	4A/ 4B	.
4r	8B/L	.
.	8B/J	.
4r	4B/	.
=11	=11	=11
!	!LO:TX:b:i:t=ritenuto	!
4AAA/ 4AA	2.r	.
4GGG/ 4GG	.	.
4FFF#/ 4FF#	.	.
!!LO:LB:g=original	!	!
=12||	=12||	=12||
!	!LO:TX:B:a:t=Walc.	!
(4EE/	4r	.
4G\	4.B^>/ 4.g 4.b	.
4F#\)	.	.
.	8A#X/ 8a#X	.
=13	=13	=13
(4G\	4B/ 4g 4b	.
4A^\	4.c/ 4.a 4.cc	.
4G\)	.	.
.	8B/ 8b	.
=14	=14	=14
*^	*	*
4r	2.FF#\ 2.D#X	2.B^>/ 2.g 2.b	.
4A/	.	.	.
4A/	.	.	.
=15	=15	=15	=15
4r	2.DD#X\	4r	.
4F#/	.	4.A/ 4.f# 4.a	.
4F#/	.	.	.
.	.	8B/ 8b	.
*v	*v	*	*
=16	=16	=16
4BBB/	4r	.
4BB/ 4F#	4.A/ 4.f# 4.a	.
4BB/ 4F#	.	.
.	8G#X/ 8g#X	.
=17	=17	=17
4DD#X/	4A/ 4a	.
4BB/	4Gn/ 4gn	.
4BB/	4F#/ 4f#	.
=18	=18	=18
*^	*^	*
4r	2.EE\	2.g/	4r	.
4E/	.	.	4G\ 4B	.
4E/	.	.	4G\ 4B	.
*	*	*v	*v	*
=19	=19	=19	=19
4r	2.EE\	4r	.
4E/	.	4B\ 4b\	.
4D/	.	4B/ 4d 4b	.
*v	*v	*	*
!!LO:LB:g=original	!	!
=20	=20	=20
4GG/	4r	.
4B\	4d/ 4b 4dd	.
4A#X\	4c#X/ 4a 4cc#X	.
=21	=21	=21
4B\	4d/ 4b 4dd	.
4d;\	4.f#;\ 4.dd 4.ff#	.
4c\	.	.
.	8e/ 8cc 8ee	.
=22	=22	=22
4AA/	2.e/ 2.cc 2.ee	.
4D\ 4F# 4c	.	.
4D\ 4F# 4c	.	.
=23	=23	=23
4DD/	[2.c/ [2.d [2.f#	.
4D\ 4F# 4c	.	.
4D\ 4F# 4c	.	.
=24	=24	=24
4AA/	4c/] 4d] 4f#]	.
4D\ 4F# 4c	4e/	.
4D\ 4F# 4c	4d/	.
=25	=25	=25
4DD/	(<4c/ 4e	.
4D\ 4F# 4c	4f#/	.
4D\ 4F# 4c	4cc\)	.
=26	=26	=26
*	*^	*
2.GG/ 2.G	[2.b/	4r	.
.	.	4B\ 4d 4g	.
.	.	4B\ 4d 4g	.
=27	=27	=27	=27
2.FF#/ 2.D#X	2.b/]	4r	.
.	.	4B\ 4d#X 4a	.
.	.	4B\ 4d# 4a	.
*	*v	*v	*
!!LO:LB:g=original	!	!
=28	=28	=28
(4EE/	4r	.
4G\	4.B^>/ 4.g 4.b	.
4F#\)	.	.
.	8A#X/ 8a#X	.
=29	=29	=29
(4GG/ 4G	4B/ 4g 4b	.
4A^\	4.c/ 4.a 4.cc	.
4G\)	.	.
.	8B/ 8b	.
=30	=30	=30
*^	*	*
4r	2.FF#\ 2.D#X	2.B/ 2.g 2.b	.
4A/	.	.	.
4A/	.	.	.
=31	=31	=31	=31
4r	2.BB\ 2.DD#X	4r	.
4F#/	.	4A/ 4f# 4a	.
4F#/	.	4B/ 4b	.
*v	*v	*	*
=32	=32	=32
4BBB/	4r	.
4BB/ 4F#	4.A/ 4.f# 4.a	.
4BB/ 4F#	.	.
.	8G#X/ 8g#X	.
=33	=33	=33
(4DD#X/	4A/ 4a	.
4BB/	4Gn/ 4gn	.
4BB/)	4F#/ 4f#	.
=34	=34	=34
*^	*^	*
4r	2.EE\	2.g^>/	4r	.
4E/	.	.	4G\ 4B	.
4E/	.	.	4G\ 4B	.
*v	*v	*	*	*
*	*v	*v	*
=35	=35	=35
4EE/	4r	.
4E\	4g/	.
4D\	4f#/	.
!!LO:PB:g=original	!	!
=36	=36	=36
4C/	(4e/	.
4E\ 4A 4c	4a/	.
4E\ 4A 4c	4b/	.
=37	=37	=37
4C/	4cc\	.
4E\ 4A 4c	4ee\	.
4E\ 4A 4c	4ff#\)	.
=38	=38	=38
*	*^	*
4D\	[2.gg/	4r	.
4G\ 4B	.	4g\ 4b	.
4G\ 4B	.	4g\ 4b	.
*	*v	*v	*
=39	=39	=39
4BB/	4gg\]	.
4G\ 4B	(4dd\	.
4G\ 4B	4b\)	.
=40	=40	=40
4AA/	(4cc\ 4ee	.
4D\ 4F# 4c	4f#/	.
4D\ 4F# 4c	4cc\)	.
=41	=41	=41
4DD/	(4e/	.
4D\ 4F# 4c	4f#/	.
4D\ 4F# 4c	4cc\)	.
=42	=42	=42
*	*^	*
2.GG/ 2.G	[2.b^/	4r	.
.	.	4B\ 4d 4g	.
.	.	4B\ 4d 4g	.
=43	=43	=43	=43
2.FF#/ 2.D#X	2.b/]	4r	.
.	.	4B\ 4d#X 4a	.
.	.	4B\ 4d# 4a	.
*	*v	*v	*
!!LO:LB:g=original	!	!
=44	=44	=44
(4EE/	4r	.
4G\	4.B^>/ 4.g 4.b	.
4F#\)	.	.
.	8A#X/ 8a#X	.
=45	=45	=45
(4G\	4B/ 4g 4b	.
4A^\	4.c/ 4.a 4.cc	.
4G\)	.	.
.	8B/ 8b	.
=46	=46	=46
*^	*	*
4r	2.FF#\ 2.D#X	2.B^>/ 2.g 2.b	.
4A/	.	.	.
4A/	.	.	.
=47	=47	=47	=47
4r	2.DD#X\	4r	.
4F#/	.	4.A/ 4.f# 4.a	.
4F#/	.	.	.
.	.	8B/ 8b	.
*v	*v	*	*
=48	=48	=48
4BBB/	4r	.
4BB\ 4F#	4.A/ 4.f# 4.a	.
4BB\ 4F#	.	.
.	8G#X/ 8g#X	.
=49	=49	=49
4DD#X/	4A/ 4a	.
4BB/	4Gn/ 4gn	.
4BB/	4F#/ 4f#	.
=50	=50	=50
*^	*^	*
4r	2.EE\	2.g/	4r	.
4E/	.	.	4G\ 4B	.
4E/	.	.	4G\ 4B	.
*	*	*v	*v	*
=51	=51	=51	=51
4r	2.EE\	4r	.
4E/	.	4B/ 4b	.
4D/	.	4B/ 4d 4b	.
*v	*v	*	*
!!LO:LB:g=original	!	!
=52	=52	=52
4GG/	4r	.
4B\	4d/ 4b 4dd	.
4A#X\	4c#X/ 4a 4cc#X	.
=53	=53	=53
4B\	4d/ 4b 4dd	.
4d;\	4.f#;\ 4.dd 4.ff#	.
4c\	.	.
.	8e/ 8cc 8ee	.
=54	=54	=54
4AA/	2.e/ 2.cc 2.ee	.
4D\ 4F# 4c	.	.
4D\ 4F# 4c	.	.
=55	=55	=55
4DD/	[2.c/ [>2.d [2.f#	.
4D\ 4F# 4c	.	.
4D\ 4F# 4c	.	.
=56	=56	=56
4AA/	4c/] 4d] 4f#]	.
4D\ 4F# 4c	4e/	.
4D\ 4F# 4c	4d/	.
=57	=57	=57
4DD/	(<4c/ 4e	.
4D\ 4F# 4c	4f#/	.
4D\ 4F# 4c	4cc\)	.
=58	=58	=58
*	*^	*
2.GG/ 2.G	[2.b/	4r	.
.	.	4B\ 4d 4g	.
.	.	4B\ 4d 4g	.
=59	=59	=59	=59
2.FF#/ 2.D#X	2.b/]	4r	.
.	.	4B\ 4d#X 4a	.
.	.	4B\ 4d# 4a	.
*	*v	*v	*
!!LO:LB:g=original	!	!
=60	=60	=60
(4EE/	4r	.
4G\	4.B^>/ 4.g 4.b	.
4F#\)	.	.
.	8A#X/ 8a#X	.
=61	=61	=61
(4G\	4B/ 4g 4b	.
4A^>\	4.c/ 4.a 4.cc	.
4G\)	.	.
.	8B/ 8b	.
=62	=62	=62
*^	*	*
4r	2.FF#\ 2.D#X	2.B/ 2.g 2.b	.
4A/	.	.	.
4A/	.	.	.
=63	=63	=63	=63
4r	2.DD#X\ 2.BB	4r	.
4F#/	.	4A/ 4f# 4a	.
4F#/	.	4B/ 4b	.
*v	*v	*	*
=64	=64	=64
4BBB/	4r	.
4BB/ 4F#	4.A/ 4.f# 4.a	.
4BB/ 4F#	.	.
.	8G#X/ 8g#X	.
=65	=65	=65
(4DD#X/	4A/ 4a	.
4BB/	4Gn/ 4gn	.
4BB/)	4F#/ 4f#	.
=66	=66	=66
*^	*^	*
4r	2.EE\	2.g/	4r	.
4E/	.	.	4G\ 4B	.
4E/	.	.	4G\ 4B	.
*v	*v	*	*	*
*	*v	*v	*
=67	=67	=67
4EE/	4r	.
4E\	4g/	.
4D\	4f#/	.
!!LO:LB:g=original	!	!
=68	=68	=68
4C/	(4e/	.
4E\ 4A 4c	4a/	.
4E\ 4A 4c	4b/	.
=69	=69	=69
4C/	4cc\	.
4E\ 4A 4c	4ee\	.
4E\ 4A 4c	4ff#\)	.
=70	=70	=70
4BB/	[2.gg\	.
4G\ 4B 4e	.	.
4G\ 4B 4e	.	.
=71	=71	=71
4G\ 4B 4e	4gg\]	.
4r	4ee\	.
4r	4ff#\	.
=72	=72	=72
4C/	(4gg\	.
4r	4ee\	.
4r	4ff#\)	.
=73	=73	=73
4c\	4e\ 4a#X 4gg	.
4r	4ee\	.
4r	4aa#X\	.
=74	=74	=74
4BB\ 4B	4bb^\	.
4r	8b^\L	.
.	8b^\J	.
4r	4b^\	.
=75	=75	=75
2.r;	4r;	.
.	4e/	.
.	4g#X/	.
!!LO:PB:g=original	!	!
=76||	=76||	=76||
*k[f#c#g#d#]	*k[f#c#g#d#]	*
*	*^	*
2.EE:/ 2.BB: 2.G#:	2.b^/	4r	.
.	.	4B\ 4e 4g#	.
.	.	4B\ 4e 4g#	.
=77	=77	=77	=77
2.Gn^\	2.a#X^/	4r	.
.	.	4A#X\ 4e 4gn	.
.	.	4A#\ 4e 4g	.
=78	=78	=78	=78
2.F#^\	[2.an^/	4r	.
.	.	4B\ 4d#	.
.	.	4B\ 4d#	.
*	*v	*v	*
=79	=79	=79
2.BB/	4a/]	.
.	(4b\	.
.	4dd#\)	.
=80	=80	=80
*	*^	*
4D#\	2.ff#^/	4r	.
4A\ 4B 4d#	.	4a\ 4b	.
4A\ 4B 4d#	.	4a\ 4b	.
=81	=81	=81	=81
4BB/	2.gg#^/	4r	.
4A\ 4B 4f#	.	4a\ 4b	.
4A\ 4B 4f#	.	4a\ 4b	.
!!LO:LB:g=original	!	!	!
=82	=82	=82	=82
4E\	2.ee^/	4r	.
4G#\ 4B 4e	.	4g#\ 4b	.
4G#\ 4B 4e	.	4g#\ 4b	.
*	*v	*v	*
=83	=83	=83
4BB/	4r	.
4G#\ 4B 4e	(4dd#\	.
4G#\ 4B 4e	4ff#\)	.
=84	=84	=84
*	*^	*
4E\	2.ee^/	4r	.
4G#\ 4B 4e	.	4g#\ 4b	.
4G#\ 4B 4e	.	4g#\ 4b	.
=85	=85	=85	=85
4GG#/	2.b^/	4r	.
2G#\	.	4B\ 4e	.
.	.	4g#\	.
=86	=86	=86	=86
2FF#/ 2F#	2.b^/	4r	.
.	.	4B\ 4d# 4a	.
4r	.	4B\ 4d# 4a	.
*	*v	*v	*
=87	=87	=87
4BBB/	4r	.
4A\ 4B 4d#	(4f#/	.
4A\ 4B 4d#	4g#/	.
=88	=88	=88
4D#\	4a/	.
4A\ 4B 4f#	4b\	.
4A\ 4B 4f#	4dd#\)	.
!!LO:LB:g=original	!	!
=89	=89	=89
4BB/	4cc#\	.
4A\ 4B 4d#	4.b\	.
4A\ 4B 4d#	.	.
.	8gn/	.
=90	=90	=90
*	*^	*
2.EE/ 2.E	2.g#X^/	4r	.
.	.	4B\ 4e	.
.	.	4B\ 4e	.
*	*v	*v	*
=91	=91	=91
2BB/	4r	.
.	4e/	.
4r	4g#/	.
=92	=92	=92
*	*^	*
2.EE:/ 2.BB: 2.G#:	2.b^/	4r	.
.	.	4B\ 4e 4g#	.
.	.	4B\ 4e 4g#	.
=93	=93	=93	=93
2.Gn^\	2.a#X^/	4r	.
.	.	4A#X\ 4e 4gn	.
.	.	4A#\ 4e 4g	.
=94	=94	=94	=94
2.F#^\	[2.an^/	4r	.
.	.	4B\ 4d#	.
.	.	4B\ 4d#	.
*	*v	*v	*
=95	=95	=95
2BB/	4a/]	.
.	(4b\	.
4r	4dd#\)	.
!!LO:LB:g=original	!	!
=96	=96	=96
*	*^	*
4D#\	2.ff#^/	4r	.
4A\ 4B 4d#	.	4a\ 4b	.
4A\ 4B 4d#	.	4a\ 4b	.
=97	=97	=97	=97
4GG#/	2.gg#^/	4r	.
4G#\ 4B#X 4f#	.	4g#\ 4b#X	.
4G#\ 4B# 4f#	.	4g#\ 4b#	.
=98	=98	=98	=98
4C#/	2.ee^/	4r	.
4G#\ 4e	.	4g#\ 4cc#	.
4G#\ 4e	.	4g#\ 4cc#	.
*	*v	*v	*
=99	=99	=99
!	!LO:TUP:a:problem:klamra łukowa	!
4G#\ 4e	12ee\L	.
.	12ff#\	.
.	12ee\J	.
4r	(4dd#\	.
4r	4ee\)	.
=100	=100	=100
4AA#X/	(2ggn\	.
4A#X\ 4c# 4gn	.	.
4A#\ 4c# 4g	4ff#\)	.
=101	=101	=101
4A#X\ 4c# 4g#	(4eeT\	.
4r	4dd#\	.
4r	4ee\)	.
=102	=102	=102
4BB/	4gg#\	.
4G#\ 4B 4e	4ff#\	.
4G#\ 4B 4e	4ee\	.
!!LO:LB:g=original	!	!
=103	=103	=103
4G#\ 4B 4e	(8dd#\L	.
.	8ff#\J	.
4r	4.ee\)	.
4r	.	.
.	8g#/	.
=104	=104	=104
4BB/	4b\	.
4A\ 4B 4d#	4r	.
4A\ 4B 4d#	[4b\	.
=105	=105	=105
4BB/	4b\]	.
4A\ 4B 4d#	4.a/	.
4A\ 4B	.	.
.	8d#/	.
=106	=106	=106
*	*^	*
4E\	[2.e^/	4r	.
4BB/	.	4G#\ 4B	.
4GG#/	.	4G#\ 4B	.
*	*v	*v	*
=107||	=107||	=107||
*>A1	*>A1	*>A1
4EE/	4e/]	.
4r	4e/	.
4r	4g#X/	.
=108:|!	=108:|!	=108:|!
*>A2	*>A2	*>A2
4EE/	4G#/) 4B 4e	.
4r	8cc#\L 8ee	.
.	8cc#\ 8ee	.
4r	8cc#\ 8ee	.
.	8ff#\J	.
*kcancel	*kcancel	*kcancel
!!LO:PB:g=original	!	!
=109!|:	=109!|:	=109!|:
*>B	*>B	*>B
*k[f#c#g#]	*k[f#c#g#]	*
4AA/	4cc#\ 4ee	p
4E\ 4A	4c#^/ 4e	.
4E\ 4A	4c#^/ 4e	.
=110	=110	=110
4EE/	4r	.
4E\ 4A 4c#	8cc#\L 8ee	.
.	8cc#\ 8ee	.
4E\ 4A 4c#	8cc#\ 8ee	.
.	(8ff#\J	.
=111	=111	=111
4BB/	4ee'\)	.
4E\ 4G# 4d	4d^/ 4e	.
4E\ 4G# 4d	4d^/ 4e	.
=112	=112	=112
4EE/	4r	.
4E\ 4G# 4d	8dd\L 8ff#	.
.	8dd\ 8ff#	.
4E\ 4G# 4d	8dd\ 8ff#	.
.	(8gg#\J	.
=113	=113	=113
4BB/	4ff#'\)	.
4E\ 4G# 4d	4d^/ 4e	.
4E\ 4G# 4d	4d^/ 4e	.
=114	=114	=114
4EE/	4r	.
4E\ 4G# 4d	8dd\L 8gg#	.
.	8dd\ 8gg#	.
4E\ 4G# 4d	8aa\	.
.	8bb\J	.
!!LO:LB:g=original	!	!
=115	=115	=115
4AA/	2.cc#^\ 2.ff#	.
4E\ 4A 4c#	.	.
4E\ 4A 4c#	.	.
=116	=116	=116
4C#/	(4cc#\ 4ee	.
4E\ 4A 4c#	4gg#\	.
4E\ 4A 4c#	4aa\)	.
=117	=117	=117
4D\	4aa\	.
4F#\ 4B 4d	4f#/ 4b	.
4F#\ 4B 4d	4f#/ 4b	.
=118	=118	=118
4D#X\	4r	.
4A\ 4cn 4f#	8ccn\L 8gg#	.
.	8cc\ 8gg#	.
4A\ 4c 4f#	8gg#\	.
.	8aa\J	.
=119	=119	=119
4E\	4aa\	.
4A\ 4c#X 4e	4a\ 4cc#	.
4A\ 4c# 4e	4a\ 4cc#	.
=120	=120	=120
4C#/	2.cc#\ 2.ff#	.
4A\ 4c# 4e	.	.
4A\ 4c# 4e	.	.
=121	=121	=121
4BB/	4dd\ 4ff#	.
4E\ 4G# 4d	4g#\ 4dd	.
4E\ 4G# 4d	4dd\ 4gg#	.
!!LO:LB:g=original	!	!
=122	=122	=122
4EE/	4g#\ 4dd	.
4E\ 4G# 4d	4dd\ 4ff#	.
4E\ 4G# 4d	4dd\ 4gg#	.
=123	=123	=123
4AA/	4cc#\ 4ff#	.
4E\ 4A 4c#	4cc#\ 4ee	.
4E\ 4A 4c#	4cc#\ 4ee	.
=124	=124	=124
4EE/	4r	.
4E\ 4A 4c#	8cc#\L 8ee	.
.	8cc#\ 8ee	.
4E\ 4A 4c#	8cc#\ 8ee	.
.	(8dd#X\J	.
=125	=125	=125
4AA/	4ee'\)	.
4E\ 4A	4c#/ 4e	.
4E\ 4A	4c#/ 4e	.
=126	=126	=126
4AA#X/	4r	.
4E\ 4Gn 4c#	8cc#\L 8ee	.
.	8cc#\ 8ee	.
4E\ 4G 4c#	8cc#\ 8ee	.
.	(8dd#X\J	.
=127	=127	=127
4BB/	4ee'\)	.
4E\ 4G# 4d	4d/ 4e	.
4E\ 4G# 4d	4d/ 4e	.
=128	=128	=128
4EE/	4r	.
4E\ 4G# 4d	8dd\L 8ff#	.
.	8dd\ 8ff#	.
4E\ 4G# 4d	8dd\ 8ff#	.
.	(8ee#X\J	.
!!LO:LB:g=original	!	!
=129	=129	=129
4BB/	4ff#'\)	.
4E\ 4G# 4d	4d/ 4e	.
4E\ 4G# 4d	4d/ 4e	.
=130	=130	=130
4C#/	4r	.
4B\ 4c# 4e#X	8cc#\L 8gg#	.
.	8cc#\ 8gg#	.
4B\ 4c# 4e#	8aa\	.
.	8bb\J	.
=131	=131	=131
.	(8qcc#/	.
4F#\	[2.ccc#\)	.
4A\ 4c# 4f#	.	.
4A\ 4c# 4f#	.	.
=132	=132	=132
4A^\ 4c# 4f#	4ccc#\]	.
4r	8aa\L	.
.	8aa\	.
4r	8gg#\	.
.	8bb\J	.
=133	=133	=133
4D\	4aa\	.
4F#\ 4B 4d	4f#/ 4b	.
4F#\ 4B 4d	4f#/ 4b	.
=134	=134	=134
4D#X\	4r	.
4A\ 4cn 4f#	8aa\L	.
.	8aa\	.
4A\ 4c 4f#	8gg#\	.
.	8bb\J	.
=135	=135	=135
4E\	4aa\	.
4A\ 4c#X 4e	4a\ 4cc#	.
4A\ 4c# 4e	4a\ 4cc#	.
!!LO:LB:g=original	!	!
=136	=136	=136
4C#/	2.cc#^\ 2.ff#	.
4A\ 4c# 4e	.	.
4A\ 4c# 4e	.	.
=137	=137	=137
4BB/	4dd\ 4ff#	.
4E\ 4G# 4d	4g#\ 4dd	.
4E\ 4G# 4d	4dd\ 4gg#	.
=138	=138	=138
4EE/	4dd\ 4ff#	.
4E\ 4G# 4d	(4d/ 4f#	.
4E\ 4G# 4d	4g#/)	.
=139||	=139||	=139||
*>B1	*>B1	*>B1
4A\	[2.c#/ [2.e [2.a	.
4E\	.	.
4C#/	.	.
=140	=140	=140
4AA/	4c#/] 4e] 4a]	.
4r	8cc#\L 8ee	.
.	8cc#\ 8ee	.
4r	8cc#\ 8ee	.
.	8ff#\J	.
=141:|!	=141:|!	=141:|!
*>B2	*>B2	*>B2
4A\	[2.c#/ [2.e [2.a	.
4E\	.	.
4C#/	.	.
=142	=142	=142
4AA/	4c#/] 4e] 4a]	.
4r	4e/	.
4r	4g#/	.
!!LO:PB:g=original	!	!
=143||	=143||	=143||
*>B	*>B	*>B
*k[f#c#g#d#]	*k[f#c#g#d#]	*
*	*^	*
2.FF#:/ 2.BB: 2.G#:	2.b^/	4r	.
.	.	4B\ 4e 4g#	.
.	.	4B\ 4e 4g#	.
=144	=144	=144	=144
2.Gn^\	2.a#X^/	4r	.
.	.	4A#X\ 4e 4gn	.
.	.	4A#\ 4e 4g	.
=145	=145	=145	=145
2.F#^\	[2.a^/	4r	.
.	.	4B\ 4d#	.
.	.	4B\ 4d#	.
*	*v	*v	*
=146	=146	=146
2.BB/	4a/]	.
.	(4b\	.
.	4dd#\)	.
=147	=147	=147
*	*^	*
4D#\	2.ff#^/	4r	.
4A\ 4B 4d#	.	4a\ 4b	.
4A\ 4B 4d#	.	4a\ 4b	.
=148	=148	=148	=148
4BB/	2.gg#^/	4r	.
4A\ 4B 4f#	.	4a\ 4b	.
4A\ 4B 4f#	.	4a\ 4b	.
=149	=149	=149	=149
4E\	2.ee^/	4r	.
4G#\ 4B 4e	.	4g#\ 4b	.
4G#\ 4B 4e	.	4g#\ 4b	.
*	*v	*v	*
=150	=150	=150
4BB/	4r	.
4G#\ 4B 4e	(4dd#\	.
4G#\ 4B 4e	4ff#\)	.
!!LO:LB:g=original	!	!
=151	=151	=151
*	*^	*
4E\	2.ee^/	4r	.
4G#\ 4B 4e	.	4g#\ 4b	.
4G#\ 4B 4e	.	4g#\ 4b	.
=152	=152	=152	=152
4GG#/	2.b^/	4r	.
2G#\	.	4B\ 4e	.
.	.	4g#\	.
=153	=153	=153	=153
2FF#/ 2F#	2.b^/	4r	.
.	.	4B\ 4d# 4a	.
4r	.	4B\ 4d# 4a	.
*	*v	*v	*
=154	=154	=154
4BBB/	4r	.
4A\ 4B 4d#	(4f#/	.
4A\ 4B 4d#	4g#/	.
=155	=155	=155
4D#\	4a/	.
4A\ 4B 4f#	4b\	.
4A\ 4B 4f#	4dd#\)	.
=156	=156	=156
4BB/	4cc#\	.
4A\ 4B 4d#	4.b\	.
4A\ 4B 4d#	.	.
.	8gn/	.
=157	=157	=157
*	*^	*
2EE/ 2E	2.g#X^/	4r	.
.	.	4B\ 4e	.
4r	.	4B\ 4e	.
*	*v	*v	*
=158	=158	=158
2BB/	4r	.
.	4e/	.
4r	4g#/	.
!!LO:LB:g=original	!	!
=159	=159	=159
*	*^	*
2.EE:/ 2.BB: 2.G#:	2.b^/	4r	.
.	.	4B\ 4e 4g#	.
.	.	4B\ 4e 4g#	.
=160	=160	=160	=160
2.Gn^\	2.a#X^/	4r	.
.	.	4A#X\ 4e 4gn	.
.	.	4A#\ 4e 4g	.
=161	=161	=161	=161
2.F#^\	[2.an^/	4r	.
.	.	4B\ 4d#	.
.	.	4B\ 4d#	.
*	*v	*v	*
=162	=162	=162
2BB/	4a/]	.
.	(4b\	.
4r	4dd#\)	.
=163	=163	=163
*	*^	*
4D#\	2.ff#^/	4r	.
4A\ 4B 4d#	.	4a\ 4b	.
4A\ 4B 4d#	.	4a\ 4b	.
=164	=164	=164	=164
4GG#/	2.gg#^/	4r	.
4G#\ 4B#X 4f#	.	4g#\ 4b#X	.
4G#\ 4B# 4f#	.	4g#\ 4b#	.
=165	=165	=165	=165
4C#/	2.ee^/	4r	.
4G#\ 4e	.	4g#\ 4cc#	.
4G#\ 4e	.	4g#\ 4cc#	.
*	*v	*v	*
=166	=166	=166
!	!LO:TUP:a:problem:klamra łukowa	!
4G#\ 4e	12ee\L	.
.	12ff#\	.
.	12ee\J	.
4r	(4dd#\	.
4r	4ee\)	.
=167	=167	=167
4AA#X/	(2ggn\	.
4A#X\ 4c# 4gn	.	.
4A#\ 4c# 4g	4ff#\)	.
=168	=168	=168
4A#X\ 4c# 4g#	(4eeT\	.
4r	4dd#\	.
4r	4ee\)	.
=169	=169	=169
4BB/	4gg#\	.
4G#\ 4B 4e	4ff#\	.
4G#\ 4B 4e	4ee\	.
=170	=170	=170
4G#\ 4B 4e	(8dd#\L	.
.	8ff#\J	.
4r	4.ee\)	.
4r	.	.
.	8g#/	.
=171	=171	=171
4BB/	4b\	.
4A\ 4B 4d#	4r	.
4A\ 4B 4d#	[4b\	.
=172	=172	=172
4BB/	4b\]	.
4A\ 4B 4d#	4.a/	.
4A\ 4B	.	.
.	8d#/	.
=173	=173	=173
4EE^>/ 4E	4G#/ 4B 4e	.
4GG#^>/ 4G#	4r	.
4BB^>\ 4B	4r	.
=174	=174	=174
4E^\ 4e	4r	.
4G#^\ 4g#	8b^\L 8bb	.
.	8b\ 8bb	.
4A^\ 4a	8cc#\ 8ccc#	.
.	8cc#\J 8ccc#	.
!!LO:LB:g=original	!	!
=175	=175	=175
4G#\ 4g#	2.b^\ 2.bb	.
4E\ 4e	.	.
4C#\ 4c#	.	.
=176	=176	=176
4BB^\ 4B	4r	.
4E\ 4e	8g#^\L 8gg#	.
.	8g#\ 8gg#	.
4F#\ 4f#	8a\ 8aa	.
.	8a\J 8aa	.
=177	=177	=177
4E^>\ 4e	[2.g#^^\ [2.gg#	.
4BB^>\ 4B	.	.
4GG#^>/ 4G#	.	.
=178	=178	=178
4EE/ 4E	4g#\] 4gg#]	.
4Cn\ 4cn	8e^\L 8ee	.
.	8e\ 8ee	.
4AA\ 4A	8f#\ 8ff#	.
.	8f#\J 8ff#	.
=179	=179	=179
!	!LO:TX:b:i:t=ritard.	!
2BB\ 2B	(4gn\ 4ggn	.
.	4e/ 4ee	.
4A\	4cn/ 4e 4f#	.
=180	=180	=180
4B\	4b/)	.
4r	4r	.
4BB\ 4A	4B/ 4d#	pp
=181	=181	=181
4E\	[2.Gn/ [2.B [2.e	.
4BB/	.	.
4GGn/	.	.
=182	=182	=182
4EE/	4G/] 4B] 4e]	.
!	!LO:TX:b:i:t=Fine.	!
4r	4r	.
4r	4r	.
==183	==183	==183
*-	*-	*-
!!!system-decoration: {(s1,s2)}
!!!RDF**kern: > = above
!!!RDF**kern: < = below
!!!ENC: Andrzej Gręziak
!!!END: 2023-09-09
!!!EED: Jan Barakat
!!!EEV: 2023-09-28
